svgs/sharp-solid/barcode-scan.svg

<svg xmlns="http://www.w3.org/2000/svg" viewBox="0 0 640 512"><!--! Font Awesome Pro 6.6.0 by @fontawesome - https://fontawesome.com License - https://fontawesome.com/license (Commercial License) Copyright 2024 Fonticons, Inc. --><path d="M128 32L64 32l0 160 64 0 0-160zM64 480l64 0 0-160-64 0 0 160zm96 0l32 0 0-160-32 0 0 160zm64 0l64 0 0-160-64 0 0 160zm0-288l64 0 0-160-64 0 0 160zm96 288l64 0 0-160-64 0 0 160zm0-288l64 0 0-160-64 0 0 160zM448 480l32 0 0-160-32 0 0 160zm0-288l32 0 0-160-32 0 0 160zm64 288l64 0 0-160-64 0 0 160zm0-288l64 0 0-160-64 0 0 160zm-352 0l32 0 0-160-32 0 0 160zM0 232l0 48 640 0 0-48L0 232z"/></svg>

<svg xmlns="http://www.w3.org/2000/svg" viewBox="0 0 640 512"><!--! Font Awesome Pro 6.4.2 by @fontawesome - https://fontawesome.com License - https://fontawesome.com/license (Commercial License) Copyright 2023 Fonticons, Inc. --><path d="M128 32H64V192h64V32zM64 480h64V320H64V480zm96 0h32V320H160V480zm64 0h64V320H224V480zm0-288h64V32H224V192zm96 288h64V320H320V480zm0-288h64V32H320V192zM448 480h32V320H448V480zm0-288h32V32H448V192zm64 288h64V320H512V480zm0-288h64V32H512V192zm-352 0h32V32H160V192zM0 232v48H640V232H0z"/></svg>
